X: 1
T: (Hommage \`a) la Belle Gasp\'esie
C: Marcel Messervier
M: C|
L: 1/8
Z: 20040503 by John Chambers jc:ecf-guest.mit.edu
K: A
AB \
|:"A"c3d cBAc | fee^d e2EA \
| c3d cBAc | "Bm"eddc d3c |
| "E7"dcde dcBA | BABc B3e \
| e^def e=dcB |1 "A"cBcd c2EA :|2 "A"Ac "E7"BG "A"A4 |]
|:"A"aA=gA fAeA | Acef "F#m"ecBA \
| "E7"E2BE cEBE |1,3 "A"ABcd ecBA :|2,4 "A"Ac "E7"BG "A"A4 :|
